!!!COM: Bach, Johann Sebastian
!!!CDT: 1685/02/21/-1750/07/28/
!!!OPR: Partita for solo violin, No. 1 in D Major
!!!OTL: Movement 4: Double
!!!OMD: Presto
!!!ODT: 1720///
!!!SCT: BWV 1002
**kern
*>[A,A,B,B]
*>norep[A,B]
*>A
*Ivioln
*clefG2
*k[f#c#]
*M3/4
*MM144
16b/
=1
8b/L
16a/L
16g/JJ
16f#/LL
16e/
16d/
16c#/JJ
16B/LL
16d/
16c#/
16B/JJ
=2
16A#/LL
16c#/
16d/
16e/JJ
16f#/LL
16g#/
16a#/
16b/JJ
16cc#\LL
16dd\
16ee\
16cc#\JJ
=3
16dd/LL
16b/
16a/
16g/JJ
16f#/LL
16e/
16d/
16c#/JJ
16B/LL
16d/
16c#/
16B/JJ
=4
16c#/LL
16e/
16f#/
16g/JJ
16a/LL
16b/
16cc#/
16dd/JJ
16ee\LL
16ff#\
16gg\
16ee\JJ
=5
16ff#\LL
16dd\
16cc#\
16b\JJ
16a/LL
16g/
16f#/
16e/JJ
16d/LL
16f#/
16e/
16d/JJ
=6
16e/LL
16g/
16a/
16b/JJ
16cc\LL
16dd\
16ee\
16ff#\JJ
16gg\LL
16ee\
16ff#\
16gg\JJ
=7
16a#\LL
16cc#\
16dd\
16ee\JJ
16ff#\LL
16g\
16f#\
16e\JJ
16d#/LL
16cc/
16b/
16a/JJ
=8
16g#/LL
16b/
16cc#/
16dd/JJ
16ee/LL
16f#/
16e/
16d/JJ
16c#/LL
16dd/
16cc#/
16b/JJ
=9
16a#\LL
16gg\
16ff#\
16ee\JJ
16dd\LL
16ff#\
16gg#\
16aa#\JJ
16bb\LL
16dd\
16cc#\
16b\JJ
=10
16f#\LL
16cc#\
16dd\
16ee\JJ
16ff#\LL
16gg#\
16aa#\
16bb\JJ
16ccc#\LL
16ddd\
16eee\
16ccc#\JJ
=11
16ddd\LL
16bb\
16aa\
16gg\JJ
16ff#\LL
16ee\
16dd\
16cc#\JJ
16b/LL
16a/
16g#/
16f#/JJ
=12
16e/LL
16b/
16cc#/
16dd/JJ
16ee\LL
16ff#\
16gg#\
16aa\JJ
16bb\LL
16ccc#\
16ddd\
16bb\JJ
=13
16ccc#\LL
16aa\
16gg#\
16ff#\JJ
16ee\LL
16dd\
16cc#\
16b\JJ
16a/LL
16g/
16f#/
16e/JJ
=14
16d/LL
16a/
16b/
16cc#/JJ
16dd\LL
16ee\
16ff#\
16gg\JJ
16aa\LL
16bb\
16ccc\
16aa\JJ
=15
16bb\LL
16gg\
16ff#\
16ee\JJ
16dd\LL
16cc\
16b\
16a\JJ
16g/LL
16f#/
16e/
16d/JJ
=16
16c#/LL
16e/
16f#/
16g/JJ
16a\LL
16b\
16cc#\
16dd\JJ
16ee\LL
16ff#\
16gg\
16ee\JJ
=17
16ff#\LL
16aa\
16bb\
16ccc#\JJ
16ddd\LL
16ff#\
16ee\
16dd\JJ
16a\LL
16ee\
16ddd\
16ccc#\JJ
=18
16ddd\LL
16aa\
16ff#\
16ddd\JJ
16aa\LL
16ff#\
16dd\
16aa\JJ
16ff#\LL
16dd\
16cc#\
16b\JJ
=19
16a#\LL
16gg\
16ff#\
16ee\JJ
16ccc#\LL
16bb\
16aa#\
16gg#\JJ
16ff#\LL
16ee\
16dd\
16cc#\JJ
=20
16dd\LL
16b\
16dd\
16ff#\JJ
16bb\LL
16ccc#\
16ddd\
16ccc#\JJ
16bb\LL
16aa\
16gg#\
16ff#\JJ
=21
16ee#\LL
16ccc#\
16gg#\
16ee#\JJ
16cc#\LL
16gg#\
16ee#\
16cc#\JJ
16b\LL
16dd\
16cc#\
16b\JJ
=22
16a\LL
16cc#\
16ff#\
16gg#\JJ
16aa\LL
16bb\
16ccc#\
16bb\JJ
16aa\LL
16gg#\
16ff#\
16ee\JJ
=23
16dd#\LL
16bb\
16ff#\
16dd#\JJ
16b\LL
16ff#\
16dd#\
16b\JJ
16a\LL
16cc#\
16b\
16a\JJ
=24
16g#\LL
16ff#\
16dd\
16b\JJ
16g#\LL
16dd\
16b\
16g#\JJ
16f#/LL
16a/
16g#/
16f#/JJ
=25
16e#/LL
16g#/
16a/
16b/JJ
16cc#\LL
16dd#\
16ee#\
16ff#\JJ
16gg#\LL
16aa\
16bb\
16gg#\JJ
=26
16aa\LL
16ff#\
16ee\
16dd\JJ
16cc#/LL
16b/
16a/
16g#/JJ
16f#/LL
16e/
16d/
16c#/JJ
=27
16B/LL
16f#/
16g/
16a/JJ
16b\LL
16cc#\
16dd\
16ee\JJ
16ff#\LL
16gg\
16aa\
16ff#\JJ
=28
16gg\LL
16bb\
16gg\
16dd\JJ
16b\LL
16gg\
16dd\
16b\JJ
16g\LL
16dd\
16b\
16g\JJ
=29
16e#/LL
16b/
16g#/
16e#/JJ
16c#/LL
16d#/
16e#/
16f#/JJ
16g#/LL
16a/
16b/
16g#/JJ
=30
16a/LL
16f#/
16a/
16cc#/JJ
16ff#/LL
16a/
16g#/
16f#/JJ
16c#/LL
16g#/
16ff#/
16ee#/JJ
=31
16ff#/LL
16f#/
16a#/
16cc#/JJ
16ee/LL
16f#/
16a#/
16cc#/JJ
16dd/LL
16f#/
16b/
16dd/JJ
=32
16cc#/LL
16b/
16a#/
16g#/JJ
16f#/LL
16a#/
16cc#/
16ee#/JJ
8.ff#\
=:|!|:
*>B
16cc#\
=33
16cc#/LL
16f#/
16g#/
16a#/JJ
16b\LL
16cc#\
16dd\
16ee\JJ
16ff#\LL
16gg#\
16aa#\
16ff#\JJ
=34
16bb\LL
16ff#\
16ee\
16dd\JJ
16cc#/LL
16b/
16a#/
16g#/JJ
16f#/LL
16e/
16d/
16c#/JJ
=35
16d/LL
16B/
16d/
16f#/JJ
16b/LL
16d/
16f#/
16b/JJ
16dd\LL
16b\
16dd\
16ff#\JJ
=36
16ee\LL
16dd\
16cc#\
16b\JJ
16a/LL
16g/
16f#/
16e/JJ
16d#/LL
16cc/
16b/
16a/JJ
=37
16g/LL
16e/
16g/
16b/JJ
16ee\LL
16g\
16b\
16ee\JJ
16gg\LL
16ee\
16gg\
16bb\JJ
=38
16aa\LL
16gg\
16ff#\
16ee\JJ
16dd\LL
16cc\
16b\
16a\JJ
16g#\LL
16ff\
16ee\
16dd\JJ
=39
16cc\LL
16a\
16cc\
16ee\JJ
16aa\LL
16bb\
16ccc\
16bb\JJ
16aa\LL
16gg\
16ff#\
16ee\JJ
=40
16dd#\LL
16b\
16dd#\
16ff#\JJ
16aa\LL
16gg\
16ff#\
16ee\JJ
16dd#\LL
16cc#\
16b\
16a\JJ
=41
16g/LL
16b/
16ee/
16g/JJ
16f#/LL
16a/
16dd/
16f#/JJ
16e/LL
16g/
16cc/
16e/JJ
=42
16d#/LL
16f#/
16a/
16cc/JJ
16b\LL
16cc#\
16dd#\
16ee\JJ
16ff#\LL
16gg\
16aa\
16ff#\JJ
=43
16gg/LL
16b/
16e/
16b/JJ
16ff#/LL
16b/
16d/
16b/JJ
16ee/LL
16a/
16c/
16a/JJ
=44
16dd/LL
16g#/
16B/
16c/JJ
16d/LL
16e/
16f#/
16g#/JJ
16a/LL
16b/
16cc/
16dd/JJ
=45
16ee\LL
16cc\
16a\
16b\JJ
16cc\LL
16dd\
16ee\
16ff#\JJ
16gg\LL
16aa\
16bb\
16ccc\JJ
=46
16dd#\LL
16bb\
16ff#\
16dd#\JJ
16b\LL
16ff#\
16dd#\
16b\JJ
16a\LL
16cc\
16b\
16a\JJ
=47
16g\LL
16b\
16cc#\
16dd#\JJ
16ee/LL
16g/
16f#/
16e/JJ
16B/LL
16f#/
16ee/
16dd#/JJ
=48
16ee/LL
16e/
16f#/
16g/JJ
16a\LL
16b\
16cc#\
16dd#\JJ
16ee\LL
16ff#\
16gg\
16aa\JJ
=49
16bb\LL
16ccc#\
16ddd\
16ccc#\JJ
16bb\LL
16aa\
16gg#\
16ff#\JJ
16ee\LL
16dd\
16cc#\
16b\JJ
=50
16cc#\LL
16dd\
16ee\
16dd\JJ
16cc#/LL
16b/
16a/
16g#/JJ
16f#/LL
16e/
16d/
16c#/JJ
=51
16d/LL
16e/
16f#/
16e/JJ
16d/LL
16c#/
16B/
16a/JJ
16g#/LL
16f#/
16e/
16dd/JJ
=52
16cc#\LL
16a\
16cc#\
16ee\JJ
16gg\LL
16ff#\
16ee\
16dd\JJ
16cc#/LL
16b/
16a/
16g/JJ
=53
16f#/LL
16a/
16dd/
16f#/JJ
16e/LL
16g/
16cc#/
16e/JJ
16d/LL
16f#/
16b/
16d/JJ
=54
16c#/LL
16e/
16g/
16b/JJ
16a\LL
16b\
16cc#\
16dd\JJ
16ee\LL
16ff#\
16gg\
16ee\JJ
=55
16ff#/LL
16a/
16d/
16a/JJ
16ee/LL
16a/
16c#/
16a/JJ
16dd/LL
16g/
16B/
16g/JJ
=56
16cc#/LL
16g/
16A/
16B/JJ
16c#/LL
16d/
16e/
16f#/JJ
16g/LL
16b/
16a/
16g/JJ
=57
16f#/LL
16d/
16f#/
16a/JJ
16cc\LL
16a\
16cc\
16ff#\JJ
16aa\LL
16dd\
16ff#\
16aa\JJ
=58
16bb\LL
16ccc\
16bb\
16aa\JJ
16gg\LL
16ff#\
16ee\
16dd\JJ
16cc#/LL
16b/
16a/
16g/JJ
=59
16f#/LL
16a/
16b/
16cc#/JJ
16dd/LL
16f#/
16e/
16d/JJ
16A/LL
16e/
16dd/
16cc#/JJ
=60
16dd/LL
16a/
16f#/
16dd/JJ
16a/LL
16f#/
16d/
16a/JJ
16f#/LL
16d/
16c#/
16B/JJ
=61
16A#/LL
16g/
16f#/
16e/JJ
16cc#/LL
16b/
16a#/
16g#/JJ
16f#/LL
16e/
16d/
16c#/JJ
=62
16d/LL
16B/
16d/
16f#/JJ
16b\LL
16cc#\
16dd\
16cc#\JJ
16b/LL
16a/
16g#/
16f#/JJ
=63
16e#/LL
16c#/
16e#/
16g#/JJ
16cc#\LL
16g#\
16cc#\
16ee#\JJ
16gg#\LL
16dd\
16cc#\
16b\JJ
=64
16a#\LL
16ff#\
16cc#\
16a#\JJ
16f#/LL
16cc#/
16a#/
16f#/JJ
16e/LL
16g/
16f#/
16e/JJ
=65
16d#\LL
16ff#\
16gg#\
16aa\JJ
16bb\LL
16cc#\
16b\
16a\JJ
16g#/LL
16f#/
16e/
16d/JJ
=66
16c#\LL
16ee\
16ff#\
16gg\JJ
16aa\LL
16b\
16a\
16g\JJ
16f#/LL
16e/
16d/
16c/JJ
=67
16B/LL
16dd/
16ee/
16ff#/JJ
16gg/LL
16a/
16g/
16f#/JJ
16e/LL
16d/
16c#/
16B/JJ
=68
16A#/LL
16cc#/
16dd/
16ee/JJ
16ff#/LL
16g/
16f#/
16e/JJ
16d#/LL
16c#/
16B/
16A/JJ
=69
16G#/LL
16B/
16c#/
16d/JJ
16e/LL
16f#/
16g#/
16a#/JJ
16b\LL
16cc#\
16dd\
16b\JJ
=70
16cc#\LL
16ff#\
16ee\
16dd\JJ
16cc#/LL
16b/
16a#/
16g#/JJ
16f#/LL
16e/
16d/
16c#/JJ
=71
16d/LL
16B/
16d/
16f#/JJ
16b\LL
16dd\
16ff#\
16b\JJ
16f#/LL
16b/
16cc#/
16a#/JJ
=72
16b/LL
16f#/
16b/
16dd/JJ
16ff#\LL
16ee\
16dd\
16cc#\JJ
16b/LL
16a/
16g#/
16f#/JJ
=73
(16e/LL
16f#/
16e/)
16dd/JJ
(16bb\LL
16aa\
16bb\)
16dd\JJ
(16e/LL
16f#/
16e/)
16dd/JJ
=74
16cc#\LL
16a\
16cc#\
16ee\JJ
16gg\LL
16ff#\
16ee\
16dd\JJ
16cc#/LL
16b/
16a#/
16g#/JJ
=75
(16f#/LL
16g/
16f#/)
16ee/JJ
(16ccc#\LL
16bb\
16ccc#\)
16ee\JJ
(16f#/LL
16g/
16f#/)
16ee/JJ
=76
16dd#\LL
16b\
16dd#\
16ff#\JJ
16aa\LL
16gg\
16ff#\
16ee\JJ
16dd#\LL
16ccc\
16bb\
16aa\JJ
=77
(16gg\LL
16ff#\)
(16ee#\
16ff#\JJ)
(16cc#\LL
16dd\)
(16a#\
16b\JJ)
(16e#/LL
16f#/)
(16a#/
16b/JJ)
=78
16ee\LL
16aa#\
16ccc#\
16ee\JJ
16dd\LL
16bb\
16cc#\
16b\JJ
16f#\LL
16cc#\
16bb\
16aa#\JJ
=79
16bb\LL
16ddd\
16bb\
16ff#\JJ
16bb\LL
16ff#\
16dd\
16ff#\JJ
16dd\LL
16b\
16ff#\
16dd\JJ
=80
16b/LL
16dd/
16b/
16f#/JJ
16b/LL
16f#/
16d/
16f#/JJ
8.B/
==:|!
*-
!!!ENC: Craig Sapp
!!!END: 2004/05/06/
